src/lib/packages/icons/src/assets/filled/building-coins.svg

<svg width="24" height="24" viewBox="0 0 24 24" fill="none" xmlns="http://www.w3.org/2000/svg">
<path d="M15.7729 11.2661C15.9039 11.2311 16 11.116 16 10.981V6.81106C16 6.11106 15.52 5.5011 14.84 5.3511L4.83997 3.04104C3.89997 2.82104 3 3.541 3 4.501V19.001C3 19.081 3.00001 19.161 3.01001 19.231C3.08001 20.331 3.67002 20.921 4.77002 20.991C4.84002 21.001 4.92 21.001 5 21.001H7.19995C7.36595 21.001 7.5 20.867 7.5 20.701V17.1079C7.5 16.1119 8.18094 15.1881 9.16394 15.0281C10.4169 14.8241 11.5 15.786 11.5 17.001V20.701C11.5 20.867 11.634 21.001 11.8 21.001H13.3669C13.6299 21.001 13.7531 20.6971 13.5811 20.4981C13.2051 20.0631 13 19.549 13 18.971V14.031C13 12.717 14.0559 11.7161 15.7729 11.2661ZM8 12.75H7C6.586 12.75 6.25 12.414 6.25 12C6.25 11.586 6.586 11.25 7 11.25H8C8.414 11.25 8.75 11.586 8.75 12C8.75 12.414 8.414 12.75 8 12.75ZM8 9.75003H7C6.586 9.75003 6.25 9.41403 6.25 9.00003C6.25 8.58603 6.586 8.25003 7 8.25003H8C8.414 8.25003 8.75 8.58603 8.75 9.00003C8.75 9.41403 8.414 9.75003 8 9.75003ZM12 12.75H11C10.586 12.75 10.25 12.414 10.25 12C10.25 11.586 10.586 11.25 11 11.25H12C12.414 11.25 12.75 11.586 12.75 12C12.75 12.414 12.414 12.75 12 12.75ZM12 9.75003H11C10.586 9.75003 10.25 9.41403 10.25 9.00003C10.25 8.58603 10.586 8.25003 11 8.25003H12C12.414 8.25003 12.75 8.58603 12.75 9.00003C12.75 9.41403 12.414 9.75003 12 9.75003ZM18 19.46C19.74 19.46 21.13 19.0401 22 18.3401V18.97C22 20.33 20 21 18 21C16 21 14 20.33 14 18.97V18.3401C14.87 19.0401 16.26 19.46 18 19.46ZM18 17.0601C19.74 17.0601 21.13 16.64 22 15.94V16.43C22 17.8 20 18.46 18 18.46C16 18.46 14 17.8 14 16.43V15.94C14.88 16.64 16.27 17.0601 18 17.0601ZM18 12C20 12 22 12.6801 22 14.0301C22 15.3901 20 16.0601 18 16.0601C16 16.0601 14 15.3901 14 14.0301C14 12.6801 16 12 18 12Z" fill="currentColor"/>
</svg>

<svg xmlns="http://www.w3.org/2000/svg" width="24" height="24" fill="none"><path fill="currentColor" d="M15.773 11.266a.3.3 0 0 0 .227-.285v-4.17c0-.7-.48-1.31-1.16-1.46l-10-2.31c-.94-.22-1.84.5-1.84 1.46v14.5c0 .08 0 .16.01.23.07 1.1.66 1.69 1.76 1.76.07.01.15.01.23.01h2.2a.3.3 0 0 0 .3-.3v-3.593c0-.996.68-1.92 1.664-2.08a2.001 2.001 0 0 1 2.336 1.973v3.7a.3.3 0 0 0 .3.3h1.567c.263 0 .386-.304.214-.503A2.288 2.288 0 0 1 13 18.971v-4.94c0-1.314 1.056-2.315 2.773-2.765ZM8 12.75H7a.75.75 0 0 1 0-1.5h1a.75.75 0 0 1 0 1.5Zm0-3H7a.75.75 0 0 1 0-1.5h1a.75.75 0 0 1 0 1.5Zm4 3h-1a.75.75 0 0 1 0-1.5h1a.75.75 0 0 1 0 1.5Zm0-3h-1a.75.75 0 0 1 0-1.5h1a.75.75 0 0 1 0 1.5Zm6 9.71c1.74 0 3.13-.42 4-1.12v.63c0 1.36-2 2.03-4 2.03s-4-.67-4-2.03v-.63c.87.7 2.26 1.12 4 1.12Zm0-2.4c1.74 0 3.13-.42 4-1.12v.49c0 1.37-2 2.03-4 2.03s-4-.66-4-2.03v-.49c.88.7 2.27 1.12 4 1.12ZM18 12c2 0 4 .68 4 2.03 0 1.36-2 2.03-4 2.03s-4-.67-4-2.03c0-1.35 2-2.03 4-2.03Z"/></svg>
